X:1
T:Title
%%score { 1 | ( 2 3 ) }
L:1/8
M:4/4
K:C
V:1 treble nm="Grand Piano"
V:2 bass 
V:3 bass 
V:1
 z4 z2[Q:1/4=94] E>F | [EG]2 [FA]>G [Ec]2 d>c | [DB]2 [DB]2 [B,D]2 D>E | [DF]2 .[FB]2 [EG]3 F | %4
 [CE]6 E>F | [EG]2 [FA]>G [Ec]2 e>d |[M:9/8] c2 B- B [CA]2- [CA]AA |[M:4/4] [^Fd]2 c>c B2 A2 | %8
[M:13/16] [B,G]/-[B,G]/-[B,G]/-[B,G]/-[B,G]/-[B,G]/-[B,G]-<[B,G]F3/2 |[M:1/4] E[DF] | %10
[M:4/4] [EG]<[Ec] [Ge]<[Fd] [Ec]2 [CGc][CGB] | [CGB]>[CFA] [FAc]>[CFA] [CEG]2 [G,CE][G,DF] | %12
 [G,EG]<[Ec] [Ec]>[Fd] [Ge]2 [Ec][Ge] |[M:9/8] [^Fe]<[Fd][FA] [Fd] [=Fd]2- [Fd][CE][DF] | %14
[M:4/4] [EG]<[Ec] [Ge]<[Fd] [Ec]2 [Gc][GB] |[M:9/8] [GB]<AA- A/B/ c2- cBA | %16
[M:4/4] G<G ce e<d [DFA][DFB] |[M:7/8] [B,Fd]- [B,Fd]3 [CEc]3 |] %18
V:2
 z4 z2 C>D | z2 C2 z4[K:treble] | G,,2 G,2 G,,2 B,>C | z2 G,2 z2 G,2 | C,2 E,2 G,2 C>D | %5
 z2 C2 z4[K:treble] |[M:9/8][K:bass] [A,E]2 [E,^G,D]- [E,G,D] [A,,E,A,]2- [A,,E,A,][K:treble]CG | %7
[M:4/4][K:bass] D,2 E>E [D,D]2 [D,^F,C]2 |[M:13/16] z/ z/ z/ z/ z/ z/ z G,/-G,-<G, | %9
[M:1/4] [C,G,C][C,G,] |[M:4/4] [C,G,]<[C,G,] [C,G,]<[C,G,] [C,G,]2 E,E, | F,>F, F,>F, C,2 C,C, | %12
 C,<[C,G,] [C,G,]>[C,G,] [C,C]2 [C,G,][C,C] | %13
[M:9/8] [D,A,]<[D,A,][D,D] [D,C] [G,B,]2- [G,B,][C,G,][C,G,] | %14
[M:4/4] [C,G,]<[C,G,] [C,G,]<[C,G,] [C,G,]2 [E,C][E,C] | %15
[M:9/8] [F,C]<[K:treble][F,CF][F,CF]- [F,CF]/[F,^G,F]/ [F,A,F]2- [F,A,F][F,CG][F,CF] | %16
[M:4/4] [G,CE]<[G,CE] [G,CE][G,CG] [G,CG]<[G,B,F][K:bass] G,,G,, |[M:7/8] G,,- G,,3 C,3 |] %18
V:3
 x8 | C,2 z z/ E/ C,2[K:treble] F>E | x8 | G,,2 z A G,,2 z D | x8 | C,2 z z/ E/ C,2[K:treble] G>F | %6
[M:9/8][K:bass] x7[K:treble] x2 |[M:4/4][K:bass] x8 |[M:13/16] [G,,G,]-<[G,,G,]D,-<D, z D3/2 | %9
[M:1/4] x2 |[M:4/4] x8 | x8 | x8 |[M:9/8] x9 |[M:4/4] x8 |[M:9/8] x/[K:treble] x17/2 | %16
[M:4/4] x6[K:bass] x2 |[M:7/8] x7 |] %18

